icons/svgs/play-solid.svg

<svg width="24" height="24" viewBox="0 0 24 24" fill="none" xmlns="http://www.w3.org/2000/svg">
<path d="M7.85156 3.52344L19.1016 10.3984C19.6484 10.75 20 11.375 20 12C20 12.6641 19.6484 13.2891 19.1016 13.6016L7.85156 20.4766C7.26562 20.8281 6.52344 20.8672 5.9375 20.5156C5.35156 20.2031 5 19.5781 5 18.875V5.125C5 4.46094 5.35156 3.83594 5.9375 3.52344C6.52344 3.17188 7.26562 3.17188 7.85156 3.52344Z" fill="black"/>
</svg>

<svg xmlns="http://www.w3.org/2000/svg" width="24" height="24" fill="currentColor" class="icon-play-solid" viewBox="0 0 24 24">
  <mask id="a" width="15" height="18" x="5" y="3" maskUnits="userSpaceOnUse" style="mask-type:alpha">
    <path d="m7.852 3.523 11.25 6.875c.546.352.898.977.898 1.602 0 .664-.352 1.29-.898 1.602l-11.25 6.875c-.586.351-1.329.39-1.915.039-.585-.313-.937-.938-.937-1.641V5.125c0-.664.352-1.29.938-1.602a1.87 1.87 0 0 1 1.914 0"/>
  </mask>
  <g mask="url(#a)">
    <path d="M0 0h24v24H0z"/>
  </g>
</svg>
